packages/bezier-icons/icons/call-push-on-filled.svg

<svg width="24" height="24" viewBox="0 0 24 24" fill="none" xmlns="http://www.w3.org/2000/svg">
<path d="M4.19998 4.95491C2.58593 6.56896 2.58593 11.0883 7.75088 16.2532C12.9158 21.4182 17.4352 21.4182 19.0492 19.8042C20.0176 18.8357 20.2804 17.4199 19.6948 16.5761C19.1783 15.8013 17.7207 14.6392 16.4667 14.6392C15.1755 14.6392 14.1931 16.2658 13.5615 16.2532C12.9298 16.2407 11.2864 15.5461 9.8722 14.1319C8.45799 12.7177 7.76339 11.0743 7.75088 10.4427C7.73837 9.81101 9.36493 8.82862 9.36493 7.53739C9.36494 6.28347 8.20282 4.82579 7.42807 4.30928C6.58425 3.72371 5.16841 3.98648 4.19998 4.95491Z" fill="#313234"/>
<path d="M21 6.5C21 8.433 19.433 10 17.5 10C15.567 10 14 8.433 14 6.5C14 4.567 15.567 3 17.5 3C19.433 3 21 4.567 21 6.5Z" fill="#313234"/>
</svg>

<svg xmlns="http://www.w3.org/2000/svg" width="24" height="24" fill="none" viewBox="0 0 24 24"><path fill="#313234" d="M4.2 4.955c-1.614 1.614-1.614 6.133 3.55 11.298 5.166 5.165 9.685 5.165 11.3 3.551.968-.968 1.23-2.384.645-3.228-.517-.775-1.974-1.937-3.228-1.937-1.291 0-2.274 1.627-2.905 1.614-.632-.012-2.276-.707-3.69-2.121s-2.109-3.058-2.121-3.69c-.013-.631 1.614-1.613 1.614-2.905 0-1.254-1.162-2.711-1.937-3.228-.844-.585-2.26-.323-3.228.646M21 6.5a3.5 3.5 0 1 1-7 0 3.5 3.5 0 0 1 7 0"/></svg>
